mobile/apps/auth/assets/custom-icons/icons/noip.svg

<svg xmlns="http://www.w3.org/2000/svg" xmlns:xlink="http://www.w3.org/1999/xlink" version="1.1" id="Layer_1" x="0px" y="0px" width="100%" viewBox="0 0 200 200" enable-background="new 0 0 200 200" xml:space="preserve">
<path fill="#E9EAE8" opacity="1.000000" stroke="none" d=" M1.000001,121.000000   C1.000000,107.979103 1.000000,94.958214 1.330396,81.781845   C2.105629,80.808945 2.781408,80.039177 2.961370,79.167091   C6.970184,59.740398 16.508305,43.142090 30.377947,29.382053   C43.761433,16.104332 59.986267,7.182058 78.573097,2.942371   C79.482437,2.734949 80.195526,1.667158 81.000000,1.000001   C94.020897,1.000000 107.041786,1.000000 120.216652,1.335631   C126.713715,3.778750 133.179947,5.577904 139.376389,8.052591   C156.703827,14.972685 171.012131,25.956200 181.986893,41.089684   C190.099167,52.275986 196.134094,64.470306 199.117294,78.069069   C199.211044,78.496483 200.348892,78.694855 201.000000,79.000000   C201.000000,93.354225 201.000000,107.708458 200.669632,122.218155   C199.894424,123.189087 199.220856,123.956680 199.038727,124.827095   C195.802597,140.292557 188.666824,153.987869 178.511795,165.781891   C164.123367,182.492554 146.476486,194.499832 124.422401,199.082748   C123.840591,199.203659 123.469414,200.338181 123.000000,201.000000   C108.645775,201.000000 94.291542,201.000000 79.781174,200.674042   C78.977226,199.905136 78.385597,199.219894 77.673386,199.054794   C61.298405,195.258774 46.725803,187.667160 34.294682,176.602264   C18.003170,162.101318 7.102591,144.135208 2.914476,122.432388   C2.802733,121.853340 1.661271,121.473000 1.000001,121.000000  M162.957382,65.141830   C157.650208,70.691360 152.343033,76.240898 146.301605,81.755386   C145.732269,82.047028 145.042847,82.218056 144.611099,82.647896   C132.762451,94.444138 120.925987,106.252800 109.147583,118.119026   C108.427895,118.844093 108.202583,120.059868 107.093681,121.126122   C94.730469,133.412537 82.367249,145.698959 69.317253,158.025375   C62.966175,164.528809 56.615101,171.032227 49.973309,177.833344   C51.968117,178.908905 53.966496,179.986389 56.373127,181.619629   C60.931099,183.466125 65.489067,185.312622 70.530418,187.664200   C78.728378,189.429962 86.926338,191.195740 96.041878,193.048172   C135.589554,194.037872 165.346161,177.209564 183.339188,142.206635   C198.044006,113.600494 197.050034,84.312935 180.956207,55.283768   C179.868546,53.520458 178.780869,51.757149 177.222046,49.229988   C172.345459,54.885849 167.967255,59.963684 162.957382,65.141830  M108.466240,57.866222   C108.959000,57.471405 109.451752,57.076591 110.380226,56.193321   C112.081604,54.903320 113.950760,53.783173 115.456879,52.295490   C124.572472,43.291451 133.611420,34.209698 142.658142,25.136135   C143.883804,23.906826 145.009445,22.577780 146.408920,21.045849   C134.481003,14.180294 122.154709,10.443705 109.110474,9.413567   C92.088882,8.069327 75.690033,10.494845 59.889217,19.071775   C52.575058,24.411427 45.260902,29.751078 37.284908,35.186230   C4.630878,65.629463 1.719374,115.370926 21.645718,146.481766   C27.512495,140.245255 33.273243,134.121445 39.623917,127.697594   C47.726917,119.475052 55.829922,111.252510 64.624794,103.006409   C66.467079,100.992920 68.309372,98.979439 70.717163,96.651299   C82.356544,85.062904 94.022423,73.500809 105.590721,61.841888   C106.646294,60.778049 107.076263,59.093464 107.883652,57.776287   C107.883652,57.776287 107.786400,57.842323 108.466240,57.866222  z"/>
<path fill="#ffffff" opacity="1.000000" stroke="none" d=" M80.531342,1.000001   C80.195526,1.667158 79.482437,2.734949 78.573097,2.942371   C59.986267,7.182058 43.761433,16.104332 30.377947,29.382053   C16.508305,43.142090 6.970184,59.740398 2.961370,79.167091   C2.781408,80.039177 2.105629,80.808945 1.330396,81.313187   C1.000000,54.406445 1.000000,27.812887 1.000000,1.000000   C27.353823,1.000000 53.708252,1.000000 80.531342,1.000001  z"/>
<path fill="#ffffff" opacity="1.000000" stroke="none" d=" M201.000000,78.531342   C200.348892,78.694855 199.211044,78.496483 199.117294,78.069069   C196.134094,64.470306 190.099167,52.275986 181.986893,41.089684   C171.012131,25.956200 156.703827,14.972685 139.376389,8.052591   C133.179947,5.577904 126.713715,3.778750 120.685310,1.335631   C147.592621,1.000000 174.185257,1.000000 201.000000,1.000000   C201.000000,26.687134 201.000000,52.374908 201.000000,78.531342  z"/>
<path fill="#ffffff" opacity="1.000000" stroke="none" d=" M1.000001,121.468658   C1.661271,121.473000 2.802733,121.853340 2.914476,122.432388   C7.102591,144.135208 18.003170,162.101318 34.294682,176.602264   C46.725803,187.667160 61.298405,195.258774 77.673386,199.054794   C78.385597,199.219894 78.977226,199.905136 79.312515,200.674042   C53.072189,201.000000 27.144375,201.000000 1.000000,201.000000   C1.000000,174.646164 1.000000,148.291748 1.000001,121.468658  z"/>
<path fill="#ffffff" opacity="1.000000" stroke="none" d=" M123.468658,201.000000   C123.469414,200.338181 123.840591,199.203659 124.422401,199.082748   C146.476486,194.499832 164.123367,182.492554 178.511795,165.781891   C188.666824,153.987869 195.802597,140.292557 199.038727,124.827095   C199.220856,123.956680 199.894424,123.189087 200.669632,122.686813   C201.000000,148.926880 201.000000,174.853760 201.000000,201.000000   C175.312851,201.000000 149.625092,201.000000 123.468658,201.000000  z"/>
<path fill="#90BF02" opacity="1.000000" stroke="none" d=" M70.151657,96.965950   C68.309372,98.979439 66.467079,100.992920 64.276588,102.547241   C63.928383,86.369431 63.928383,70.650787 63.928383,54.871948   C55.257160,54.871948 47.224957,54.871948 39.033997,54.871948   C39.033997,79.516510 39.033997,103.757080 39.033997,127.997643   C33.273243,134.121445 27.512495,140.245255 21.645718,146.481766   C1.719374,115.370926 4.630878,65.629463 37.719608,35.462364   C39.135883,36.852516 39.984581,38.130096 41.121098,39.053391   C47.414471,44.166069 58.368134,43.270470 63.330196,37.318970   C67.946770,31.781837 66.780022,24.056263 60.570244,19.044075   C75.690033,10.494845 92.088882,8.069327 109.110474,9.413567   C122.154709,10.443705 134.481003,14.180294 146.408920,21.045849   C145.009445,22.577780 143.883804,23.906826 142.658142,25.136135   C133.611420,34.209698 124.572472,43.291451 115.456879,52.295490   C113.950760,53.783173 112.081604,54.903320 109.848991,56.507885   C108.807304,57.162407 108.296852,57.502369 107.786400,57.842323   C107.786400,57.842323 107.883652,57.776287 107.499512,57.814442   C103.123413,60.609695 99.131447,63.366795 95.061790,66.177551   C94.532784,62.603703 94.002762,59.023003 93.451675,55.299969   C85.547775,55.299969 77.881607,55.299969 70.151657,55.299969   C70.151657,69.433502 70.151657,83.199722 70.151657,96.965950  z"/>
<path fill="#90BE02" opacity="1.000000" stroke="none" d=" M181.064896,55.965897   C197.050034,84.312935 198.044006,113.600494 183.339188,142.206635   C165.346161,177.209564 135.589554,194.037872 95.558487,192.539490   C95.011642,175.365601 94.948189,158.700363 94.957329,141.656860   C95.029930,139.761459 95.029930,138.244339 95.029930,136.217133   C96.400269,137.088867 97.162216,137.573578 98.053833,138.371689   C101.904762,140.815338 105.425377,143.476242 109.385910,144.973618   C120.098732,149.023911 131.263062,149.217529 142.344849,146.892456   C159.790939,143.232071 172.455902,133.383316 177.684326,116.021088   C182.850937,98.864090 180.467819,82.760155 167.840240,68.827202   C167.809296,68.599007 167.711411,68.148964 168.030243,67.993683   C172.587692,63.880894 176.826294,59.923397 181.064896,55.965897  z"/>
<path fill="#FFFFFF" opacity="1.000000" stroke="none" d=" M39.328957,127.847618   C39.033997,103.757080 39.033997,79.516510 39.033997,54.871948   C47.224957,54.871948 55.257160,54.871948 63.928383,54.871948   C63.928383,70.650787 63.928383,86.369431 63.930653,102.559021   C55.829922,111.252510 47.726917,119.475052 39.328957,127.847618  z"/>
<path fill="#FFFFFF" opacity="1.000000" stroke="none" d=" M94.884727,142.035141   C94.948189,158.700363 95.011642,175.365601 95.099701,192.496170   C86.926338,191.195740 78.728378,189.429962 70.271156,186.931229   C69.954536,179.802521 69.897171,173.406799 69.921326,166.764832   C70.056465,166.354218 70.110100,166.189819 70.436935,165.848373   C78.768333,157.792603 86.826530,149.913879 94.884727,142.035141  z"/>
<path fill="#FFFFFE" opacity="1.000000" stroke="none" d=" M70.434410,96.808624   C70.151657,83.199722 70.151657,69.433502 70.151657,55.299969   C77.881607,55.299969 85.547775,55.299969 93.451675,55.299969   C94.002762,59.023003 94.532784,62.603703 95.061790,66.177551   C99.131447,63.366795 103.123413,60.609695 107.456062,57.774864   C107.076263,59.093464 106.646294,60.778049 105.590721,61.841888   C94.022423,73.500809 82.356544,85.062904 70.434410,96.808624  z"/>
<path fill="#FEFEFD" opacity="1.000000" stroke="none" d=" M60.229729,19.057926   C66.780022,24.056263 67.946770,31.781837 63.330196,37.318970   C58.368134,43.270470 47.414471,44.166069 41.121098,39.053391   C39.984581,38.130096 39.135883,36.852516 38.050526,35.414612   C45.260902,29.751078 52.575058,24.411427 60.229729,19.057926  z"/>
<path fill="#E5E5E4" opacity="1.000000" stroke="none" d=" M94.957329,141.656860   C86.826530,149.913879 78.768333,157.792603 70.368210,165.406586   C70.018867,162.756363 70.011452,160.370865 70.004036,157.985382   C82.367249,145.698959 94.730469,133.412537 107.756348,121.164223   C109.639374,121.798706 110.859749,122.395088 112.115219,123.158279   C112.150314,123.325104 112.155739,123.666389 112.012955,123.992271   C107.221497,128.898193 102.572823,133.478241 97.924149,138.058289   C97.162216,137.573578 96.400269,137.088867 95.029930,136.217133   C95.029930,138.244339 95.029930,139.761459 94.957329,141.656860  z"/>
<path fill="#81AB00" opacity="1.000000" stroke="none" d=" M112.080116,122.991463   C110.859749,122.395088 109.639374,121.798706 108.083130,121.124825   C108.202583,120.059868 108.427895,118.844093 109.147583,118.119026   C120.925987,106.252800 132.762451,94.444138 144.611099,82.647896   C145.042847,82.218056 145.732269,82.047028 146.827606,82.054634   C148.247528,83.549278 149.141449,84.744675 149.880432,86.239487   C138.292679,98.049911 126.875618,109.576714 115.395844,121.040718   C114.517334,121.918007 113.195747,122.351624 112.080116,122.991463  z"/>
<path fill="#90BE03" opacity="1.000000" stroke="none" d=" M69.839813,167.011063   C69.897171,173.406799 69.954536,179.802521 70.029465,186.678680   C65.489067,185.312622 60.931099,183.466125 56.322063,181.041183   C60.793938,175.978851 65.316872,171.494949 69.839813,167.011063  z"/>
<path fill="#82AC01" opacity="1.000000" stroke="none" d=" M69.921326,166.764832   C65.316872,171.494949 60.793938,175.978851 56.117935,180.763306   C53.966496,179.986389 51.968117,178.908905 49.973309,177.833344   C56.615101,171.032227 62.966175,164.528809 69.660645,158.005371   C70.011452,160.370865 70.018867,162.756363 70.095001,165.583633   C70.110100,166.189819 70.056465,166.354218 69.921326,166.764832  z"/>
<path fill="#E3E4E0" opacity="1.000000" stroke="none" d=" M150.035370,85.940079   C149.141449,84.744675 148.247528,83.549278 147.194733,82.072159   C152.343033,76.240898 157.650208,70.691360 163.580933,65.209869   C165.373459,66.234924 166.542435,67.191940 167.711411,68.148964   C167.711411,68.148964 167.809296,68.599007 167.557053,68.983429   C161.830566,74.973953 156.356323,80.580055 150.670471,86.124481   C150.458832,86.062805 150.035370,85.940079 150.035370,85.940079  z"/>
<path fill="#82AC02" opacity="1.000000" stroke="none" d=" M168.030243,67.993683   C166.542435,67.191940 165.373459,66.234924 163.896759,65.159714   C167.967255,59.963684 172.345459,54.885849 177.222046,49.229988   C178.780869,51.757149 179.868546,53.520458 181.010559,55.624832   C176.826294,59.923397 172.587692,63.880894 168.030243,67.993683  z"/>
<path fill="#FFFFFE" opacity="1.000000" stroke="none" d=" M108.126320,57.854275   C108.296852,57.502369 108.807304,57.162407 109.631134,56.752113   C109.451752,57.076591 108.959000,57.471405 108.126320,57.854275  z"/>
<path fill="#FEFEFC" opacity="1.000000" stroke="none" d=" M150.882095,86.186157   C156.356323,80.580055 161.830566,74.973953 167.587982,69.211624   C180.467819,82.760155 182.850937,98.864090 177.684326,116.021088   C172.455902,133.383316 159.790939,143.232071 142.344849,146.892456   C131.263062,149.217529 120.098732,149.023911 109.385910,144.973618   C105.425377,143.476242 101.904762,140.815338 98.053833,138.371689   C102.572823,133.478241 107.221497,128.898193 112.397583,124.067833   C114.508804,124.310890 116.064545,124.938728 117.680908,125.276192   C129.675720,127.780441 140.746811,126.206741 149.044968,116.391853   C156.985992,106.999374 156.451813,96.634232 150.882095,86.186157  z"/>
<path fill="#90BF02" opacity="1.000000" stroke="none" d=" M150.670471,86.124481   C156.451813,96.634232 156.985992,106.999374 149.044968,116.391853   C140.746811,126.206741 129.675720,127.780441 117.680908,125.276192   C116.064545,124.938728 114.508804,124.310890 112.540359,123.741951   C112.155739,123.666389 112.150314,123.325104 112.115219,123.158279   C113.195747,122.351624 114.517334,121.918007 115.395844,121.040718   C126.875618,109.576714 138.292679,98.049911 149.880432,86.239487   C150.035370,85.940079 150.458832,86.062805 150.670471,86.124481  z"/>
</svg>

<svg xmlns="http://www.w3.org/2000/svg" xml:space="preserve" viewBox="0 0 200 200"><path fill="#E9EAE8" d="M1 121c0-13.02 0-26.042.33-39.218.776-.973 1.451-1.743 1.631-2.615 4.01-19.427 13.547-36.025 27.417-49.785 13.383-13.278 29.608-22.2 48.195-26.44C79.483 2.735 80.196 1.667 81 1c13.02 0 26.042 0 39.217.336 6.497 2.443 12.963 4.242 19.16 6.717 17.327 6.92 31.635 17.903 42.61 33.037 8.112 11.186 14.147 23.38 17.13 36.98.094.426 1.232.625 1.883.93 0 14.354 0 28.708-.33 43.218-.776.971-1.45 1.739-1.631 2.61-3.236 15.465-10.372 29.16-20.527 40.954-14.389 16.71-32.036 28.718-54.09 33.3-.581.122-.953 1.256-1.422 1.918-14.354 0-28.708 0-43.219-.326-.804-.769-1.395-1.454-2.108-1.62-16.375-3.795-30.947-11.387-43.378-22.452-16.292-14.5-27.192-32.467-31.38-54.17-.112-.579-1.254-.959-1.915-1.432m161.957-55.858c-5.307 5.55-10.614 11.099-16.655 16.613-.57.292-1.26.463-1.69.893-11.85 11.796-23.686 23.605-35.464 35.471-.72.725-.945 1.94-2.054 3.007-12.364 12.287-24.727 24.573-37.777 36.9l-19.344 19.807c1.995 1.076 3.993 2.153 6.4 3.787 4.558 1.846 9.116 3.693 14.157 6.044 8.198 1.766 16.396 3.532 25.512 5.384 39.548.99 69.304-15.838 87.297-50.841 14.705-28.607 13.711-57.894-2.383-86.923l-3.734-6.054c-4.877 5.656-9.255 10.734-14.265 15.912m-54.49-7.276c.492-.395.985-.79 1.913-1.673 1.702-1.29 3.57-2.41 5.077-3.898 9.115-9.004 18.154-18.085 27.201-27.159 1.226-1.23 2.351-2.558 3.75-4.09-11.927-6.866-24.253-10.602-37.298-11.632-17.021-1.345-33.42 1.08-49.22 9.658-7.315 5.34-14.63 10.68-22.605 16.114C4.63 65.63 1.719 115.371 21.645 146.482c5.867-6.237 11.628-12.36 17.979-18.784 8.103-8.223 16.206-16.445 25-24.692 1.843-2.013 3.685-4.027 6.093-6.355 11.64-11.588 23.305-23.15 34.874-34.81 1.055-1.063 1.485-2.748 2.293-4.065 0 0-.098.066.582.09z"/><path fill="#fff" d="M80.531 1c-.335.667-1.049 1.735-1.958 1.942-18.587 4.24-34.812 13.162-48.195 26.44C16.508 43.142 6.97 59.74 2.96 79.167c-.18.872-.855 1.642-1.63 2.146C1 54.406 1 27.813 1 1h79.531zM201 78.531c-.651.164-1.789-.035-1.883-.462-2.983-13.599-9.018-25.793-17.13-36.98-10.975-15.133-25.283-26.116-42.61-33.036-6.197-2.475-12.663-4.274-18.692-6.717C147.593 1 174.185 1 201 1v77.531zM1 121.469c.661.004 1.803.384 1.914.963 4.189 21.703 15.09 39.67 31.38 54.17 12.432 11.065 27.004 18.657 43.38 22.453.712.165 1.303.85 1.639 1.619C53.073 201 27.144 201 1 201v-79.531zM123.469 201c0-.662.372-1.796.953-1.917 22.054-4.583 39.701-16.59 54.09-33.301 10.155-11.794 17.29-25.49 20.527-40.955.182-.87.855-1.638 1.63-2.14.331 26.24.331 52.167.331 78.313h-77.531z"/><path fill="#90BF02" d="M70.152 96.966c-1.843 2.013-3.685 4.027-5.875 5.581-.349-16.178-.349-31.896-.349-47.675H39.034v73.126l-17.388 18.484C1.719 115.37 4.63 65.629 37.72 35.462c1.416 1.39 2.265 2.668 3.401 3.591 6.293 5.113 17.247 4.217 22.21-1.734 4.616-5.537 3.449-13.263-2.76-18.275 15.119-8.55 31.518-10.975 48.54-9.63 13.044 1.03 25.37 4.766 37.298 11.632-1.4 1.532-2.525 2.86-3.75 4.09-9.048 9.074-18.087 18.155-27.202 27.16-1.506 1.487-3.375 2.607-5.608 4.212-1.042.654-1.552.994-2.063 1.334 0 0 .098-.066-.286-.028-4.377 2.796-8.369 5.553-12.438 8.364-.53-3.574-1.06-7.155-1.61-10.878h-23.3v41.666z"/><path fill="#90BE02" d="M181.065 55.966c15.985 28.347 16.979 57.634 2.274 86.24-17.993 35.004-47.75 51.832-87.78 50.333-.547-17.173-.61-33.839-.602-50.882.073-1.896.073-3.413.073-5.44 1.37.872 2.132 1.357 3.024 2.155 3.85 2.443 7.371 5.104 11.332 6.602 10.713 4.05 21.877 4.244 32.959 1.918 17.446-3.66 30.11-13.509 35.34-30.87 5.166-17.158 2.783-33.262-9.845-47.195-.03-.228-.129-.678.19-.833 4.558-4.113 8.796-8.07 13.035-12.028z"/><path fill="#FFF" d="M39.329 127.848c-.295-24.09-.295-48.331-.295-72.976h24.894c0 15.779 0 31.497.003 47.687-8.101 8.694-16.204 16.916-24.602 25.289zM94.885 142.035c.063 16.665.127 33.33.215 50.461-8.174-1.3-16.372-3.066-24.829-5.565-.316-7.128-.374-13.524-.35-20.166.135-.41.19-.575.516-.917 8.331-8.055 16.39-15.934 24.448-23.813z"/><path fill="#FFFFFE" d="M70.434 96.809c-.282-13.61-.282-27.375-.282-41.509h23.3c.55 3.723 1.08 7.304 1.61 10.878 4.07-2.811 8.061-5.568 12.394-8.403-.38 1.318-.81 3.003-1.865 4.067C94.022 73.5 82.357 85.062 70.434 96.809z"/><path fill="#FEFEFD" d="M60.23 19.058c6.55 4.998 7.717 12.724 3.1 18.261-4.962 5.951-15.916 6.847-22.209 1.734-1.136-.923-1.985-2.2-3.07-3.638C45.26 29.75 52.575 24.41 60.23 19.058z"/><path fill="#E5E5E4" d="M94.957 141.657c-8.13 8.257-16.189 16.136-24.589 23.75-.35-2.65-.357-5.036-.364-7.422 12.363-12.286 24.726-24.572 37.752-36.82 1.883.634 3.104 1.23 4.36 1.993.034.167.04.508-.103.834-4.792 4.906-9.44 9.486-14.089 14.066l-2.894-1.84c0 2.026 0 3.543-.073 5.439z"/><path fill="#81AB00" d="M112.08 122.991c-1.22-.596-2.44-1.192-3.997-1.866.12-1.065.345-2.28 1.065-3.006 11.778-11.866 23.614-23.675 35.463-35.471.432-.43 1.121-.601 2.217-.593 1.42 1.494 2.313 2.69 3.052 4.184a4787.143 4787.143 0 0 1-34.484 34.802c-.879.877-2.2 1.31-3.316 1.95z"/><path fill="#90BE03" d="M69.84 167.011c.057 6.396.115 12.792.19 19.668-4.54-1.366-9.099-3.213-13.708-5.638 4.472-5.062 8.995-9.546 13.518-14.03z"/><path fill="#82AC01" d="M69.921 166.765c-4.604 4.73-9.127 9.214-13.803 13.998-2.152-.777-4.15-1.854-6.145-2.93 6.642-6.8 12.993-13.304 19.688-19.828.35 2.366.358 4.751.434 7.579.015.606-.039.77-.174 1.18z"/><path fill="#E3E4E0" d="M150.035 85.94c-.894-1.195-1.787-2.39-2.84-3.868 5.148-5.831 10.455-11.38 16.386-16.862 1.792 1.025 2.961 1.982 4.13 2.939 0 0 .098.45-.154.834-5.726 5.991-11.2 11.597-16.887 17.141l-.635-.184z"/><path fill="#82AC02" d="M168.03 67.994c-1.488-.802-2.657-1.76-4.133-2.834 4.07-5.196 8.448-10.274 13.325-15.93 1.559 2.527 2.647 4.29 3.789 6.395-4.185 4.298-8.423 8.256-12.98 12.369z"/><path fill="#FFFFFE" d="M108.126 57.854c.17-.352.681-.692 1.505-1.102-.18.325-.672.72-1.505 1.102z"/><path fill="#FEFEFC" d="M150.882 86.186c5.474-5.606 10.949-11.212 16.706-16.974 12.88 13.548 15.263 29.652 10.096 46.81-5.228 17.361-17.893 27.21-35.34 30.87-11.08 2.326-22.245 2.132-32.958-1.918-3.96-1.498-7.481-4.159-11.332-6.602 4.519-4.894 9.167-9.474 14.344-14.304 2.11.243 3.667.87 5.283 1.208 11.995 2.504 23.066.93 31.364-8.884 7.941-9.393 7.407-19.758 1.837-30.206z"/><path fill="#90BF02" d="M150.67 86.124c5.782 10.51 6.316 20.875-1.625 30.268-8.298 9.815-19.37 11.388-31.364 8.884-1.616-.337-3.172-.965-5.14-1.534-.385-.076-.39-.417-.426-.584 1.08-.806 2.402-1.24 3.28-2.117a4787.143 4787.143 0 0 0 34.485-34.802c.155-.299.579-.176.79-.115z"/></svg>
